X: 35
T: Drowsy Maggie
Z: Em G
S: https://thesession.org/tunes/27#setting53220
R: reel
M: 4/4
L: 1/8
K: Edor
|:E2BE dEBE|E2BE AFDF|E2BE dEBE|BABc dAFD:|
d2fd c2ec|defg afge|d2fd c2ec|BABc dAFA|
d2fd c2ec|defg afge|"D"aAgA "D"fAeA|BABc dAFD|

